svg/Pictogram/pictograms-nps-accommodations-womens_restroom.svg

<svg xmlns="http://www.w3.org/2000/svg" width="123.55" height="123.54" viewBox="-0.258 -0.548 123.547 123.539" enable-background="new -0.258 -0.548 123.547 123.539"><path d="m107.97 123.64c8.156 0 14.773-6.594 14.773-14.75v-94.02c0-8.156-6.617-14.758-14.773-14.758h-94.02c-8.148 0-14.758 6.602-14.758 14.758v94.02c0 8.156 6.609 14.75 14.758 14.75h94.02z"/><path d="m13.945 2.613c-6.758 0-12.25 5.5-12.25 12.258v94.02c0 6.766 5.492 12.258 12.25 12.258h94.02c6.766 0 12.258-5.492 12.258-12.258v-94.02c0-6.758-5.492-12.258-12.258-12.258h-94.02"/><g fill="#fff"><path d="m68.38 29.848c5.797 0 9.953 4.773 10.828 7.375l7.109 23.375c1.414 5.02-4.984 7.109-6.5 2.211l-6.398-21.445h-3.688l10.727 38.12h-10.211v29.758c0 5.078-7.648 5.06-7.648 0v-29.93h-3.867v29.859c0 5.148-7.664 5.148-7.664 0v-29.687h-10.243l10.594-38.12h-3.5l-6.398 21.508c-1.516 4.672-7.984 2.773-6.492-2.273l7.094-23.375c.75-2.664 4.133-7.375 9.969-7.375h16.288"/><path d="m60.68 28.09c4.547 0 8.273-3.711 8.273-8.273 0-4.594-3.727-8.305-8.273-8.305-4.602 0-8.281 3.711-8.281 8.305-.0001 4.562 3.679 8.273 8.281 8.273"/></g></svg>

<?xml version="1.0" encoding="iso-8859-1"?>
<!-- Generator: Adobe Illustrator 13.0.2, SVG Export Plug-In . SVG Version: 6.00 Build 14948)  -->
<!DOCTYPE svg PUBLIC "-//W3C//DTD SVG 1.1//EN" "http://www.w3.org/Graphics/SVG/1.1/DTD/svg11.dtd">
<svg version="1.1" id="Layer_1" xmlns="http://www.w3.org/2000/svg" xmlns:xlink="http://www.w3.org/1999/xlink" x="0px" y="0px"
	 width="123.547px" height="123.539px" viewBox="-0.258 -0.548 123.547 123.539"
	 style="enable-background:new -0.258 -0.548 123.547 123.539;" xml:space="preserve">
<g>
	<path d="M107.969,123.645c8.156,0,14.773-6.594,14.773-14.75V14.871c0-8.156-6.617-14.758-14.773-14.758H13.945
		c-8.148,0-14.758,6.602-14.758,14.758v94.023c0,8.156,6.609,14.75,14.758,14.75H107.969z"/>
	<path d="M13.945,2.613c-6.758,0-12.25,5.5-12.25,12.258v94.023c0,6.766,5.492,12.258,12.25,12.258h94.023
		c6.766,0,12.258-5.492,12.258-12.258V14.871c0-6.758-5.492-12.258-12.258-12.258H13.945z"/>
	<path style="fill:#FFFFFF;" d="M68.383,29.848c5.797,0,9.953,4.773,10.828,7.375l7.109,23.375c1.414,5.016-4.984,7.109-6.5,2.211
		l-6.398-21.445h-3.688L80.461,79.48H70.25v29.758c0,5.078-7.648,5.055-7.648,0v-29.93h-3.867v29.859c0,5.148-7.664,5.148-7.664,0
		V79.48H40.828l10.594-38.117h-3.5l-6.398,21.508c-1.516,4.672-7.984,2.773-6.492-2.273l7.094-23.375
		c0.75-2.664,4.133-7.375,9.969-7.375H68.383z"/>
	<path style="fill:#FFFFFF;" d="M60.68,28.09c4.547,0,8.273-3.711,8.273-8.273c0-4.594-3.727-8.305-8.273-8.305
		c-4.602,0-8.281,3.711-8.281,8.305C52.398,24.379,56.078,28.09,60.68,28.09z"/>
</g>
</svg>
